assets/svg/wallet_icon_profile_emptyposts.svg

<svg width="48" height="48" viewBox="0 0 48 48" fill="none" xmlns="http://www.w3.org/2000/svg">
<path d="M24.0612 4.83188H17.1715C16.6071 4.83188 16.1056 4.47094 15.9265 3.93469L15.1146 1.5H26.119L25.3071 3.93469C25.2197 4.19597 25.0524 4.42317 24.8288 4.58417C24.6053 4.74517 24.3367 4.83182 24.0612 4.83188ZM30.215 40.8612V42.3122C30.215 43.7184 29.075 44.8584 27.6687 44.8584H16.4131C15.5075 44.8584 14.7725 45.5934 14.7725 46.4991H27.6687C29.9815 46.4991 31.8556 44.6241 31.8556 42.3122V41.5128L30.215 40.8612Z" fill="#E1EAF8"/>
<path d="M27.6695 46.828H13.5648C11.0748 46.828 9.0498 44.8021 9.0498 42.313V37.0743C9.0498 36.8934 9.19699 36.7462 9.37793 36.7462C9.55887 36.7462 9.70605 36.8934 9.70605 37.0743V42.313C9.70605 44.4412 11.4376 46.1718 13.5648 46.1718H27.6695C29.7976 46.1718 31.5282 44.4402 31.5282 42.313V32.5137C31.5282 32.3327 31.6754 32.1855 31.8564 32.1855C32.0373 32.1855 32.1845 32.3327 32.1845 32.5137V42.313C32.1845 44.8021 30.1595 46.828 27.6695 46.828Z" fill="#9A9A9A"/>
<path d="M31.5273 5.68687V11.8144C31.5273 11.9953 31.6745 12.1425 31.8554 12.1425C32.0363 12.1425 32.1835 11.9953 32.1835 11.8144V5.68687C32.1835 3.19687 30.1576 1.17188 27.6685 1.17188H13.5638C11.0738 1.17188 9.04883 3.19781 9.04883 5.68687V34.5225C9.04883 34.7034 9.19602 34.8506 9.37695 34.8506C9.55789 34.8506 9.70508 34.7034 9.70508 34.5225V5.68687C9.70508 3.55875 11.4366 1.82812 13.5638 1.82812H27.6685C29.7966 1.82812 31.5273 3.55969 31.5273 5.68687Z" fill="#9A9A9A"/>
<path d="M21.7885 18.8392C21.7397 18.8392 21.69 18.8279 21.6432 18.8054L19.455 17.7207C19.3786 17.6811 19.3209 17.6132 19.2941 17.5314C19.2673 17.4496 19.2738 17.3606 19.312 17.2836C19.3502 17.2065 19.4172 17.1475 19.4985 17.1193C19.5798 17.0912 19.6689 17.096 19.7466 17.1329L21.9338 18.2167C22.0117 18.2553 22.0711 18.3234 22.0989 18.4058C22.1267 18.4883 22.1206 18.5784 22.0819 18.6563C22.0549 18.7112 22.0131 18.7573 21.9613 18.7896C21.9094 18.8219 21.8496 18.8391 21.7885 18.8392ZM19.7325 27.3442C19.6116 27.3442 19.4944 27.2767 19.4372 27.1604C19.399 27.0823 19.3933 26.9923 19.4215 26.91C19.4496 26.8277 19.5092 26.76 19.5872 26.7217L21.78 25.6473C21.8581 25.6091 21.9482 25.6034 22.0304 25.6315C22.1127 25.6596 22.1804 25.7193 22.2188 25.7973C22.257 25.8754 22.2627 25.9654 22.2346 26.0477C22.2064 26.1299 22.1468 26.1977 22.0688 26.236L19.8769 27.3104C19.83 27.3338 19.7803 27.3442 19.7325 27.3442ZM42.1857 17.302C42.0722 17.302 41.9616 17.2429 41.9007 17.137C41.8791 17.0996 41.8652 17.0584 41.8597 17.0156C41.8541 16.9729 41.857 16.9295 41.8682 16.8878C41.8795 16.8462 41.8988 16.8072 41.9251 16.7731C41.9514 16.7389 41.9842 16.7103 42.0216 16.6888L44.1375 15.472C44.2129 15.4294 44.3021 15.4183 44.3857 15.4412C44.4692 15.4641 44.5403 15.5191 44.5834 15.5942C44.6266 15.6693 44.6383 15.7584 44.6161 15.8421C44.5939 15.9258 44.5395 15.9973 44.4647 16.041L42.3488 17.2579C42.2982 17.2879 42.241 17.302 42.1857 17.302ZM35.9316 13.2867C35.8848 13.2868 35.8386 13.2769 35.796 13.2576C35.7533 13.2383 35.7153 13.2102 35.6845 13.175C35.6537 13.1398 35.6308 13.0985 35.6173 13.0537C35.6038 13.0089 35.6 12.9618 35.6063 12.9154L35.9307 10.4957C35.955 10.3157 36.12 10.1892 36.2991 10.2145C36.4791 10.2388 36.6047 10.4038 36.5803 10.5829L36.256 13.0026C36.2453 13.0811 36.2066 13.1532 36.147 13.2054C36.0874 13.2576 36.0109 13.2865 35.9316 13.2867Z" fill="#0166FF"/>
<path d="M26.5502 18.5382C26.5502 17.4383 27.4417 16.5467 28.5413 16.5467H34.4672C35.5668 16.5467 36.4583 17.4383 36.4583 18.5382C36.4583 19.6381 35.5668 20.5297 34.4672 20.5297H28.5413C27.4417 20.5297 26.5502 19.6381 26.5502 18.5382ZM26.5502 24.4623C26.5502 23.3624 27.4417 22.4709 28.5413 22.4709H34.4672C35.5668 22.4709 36.4583 23.3624 36.4583 24.4623C36.4583 25.5623 35.5668 26.4538 34.4672 26.4538H28.5413C27.4417 26.4538 26.5502 25.5623 26.5502 24.4623Z" stroke="#0166FF" stroke-width="0.758621"/>
</svg>

<svg xmlns="http://www.w3.org/2000/svg" width="48" height="48" fill="none"><path fill="#E1EAF8" d="M24.061 4.832h-6.89c-.564 0-1.065-.361-1.244-.897L15.115 1.5h11.004l-.812 2.435a1.31 1.31 0 0 1-1.246.897m6.154 36.03v1.45a2.546 2.546 0 0 1-2.546 2.546H16.413c-.905 0-1.64.735-1.64 1.641h12.896a4.187 4.187 0 0 0 4.187-4.187v-.8z"/><path fill="#9A9A9A" d="M27.67 46.828H13.564a4.52 4.52 0 0 1-4.515-4.515v-5.239a.328.328 0 0 1 .656 0v5.239a3.863 3.863 0 0 0 3.859 3.859H27.67a3.863 3.863 0 0 0 3.858-3.859v-9.8a.329.329 0 0 1 .657 0v9.8a4.52 4.52 0 0 1-4.516 4.515M31.527 5.687v6.127a.328.328 0 0 0 .657 0V5.687a4.52 4.52 0 0 0-4.515-4.515H13.564a4.52 4.52 0 0 0-4.515 4.515v28.836a.328.328 0 0 0 .656 0V5.687a3.863 3.863 0 0 1 3.859-3.859h14.105a3.863 3.863 0 0 1 3.858 3.859"/><path fill="#0166FF" d="M21.789 18.84a.34.34 0 0 1-.146-.035l-2.188-1.084a.328.328 0 0 1 .292-.588l2.187 1.084a.328.328 0 0 1-.146.622m-2.056 8.504a.33.33 0 0 1-.311-.434.33.33 0 0 1 .165-.188l2.193-1.075a.328.328 0 0 1 .289.589l-2.192 1.074a.3.3 0 0 1-.144.034m22.453-10.042a.328.328 0 0 1-.164-.613l2.116-1.217a.328.328 0 0 1 .327.569l-2.116 1.217a.3.3 0 0 1-.163.044m-6.254-4.015a.327.327 0 0 1-.326-.372l.325-2.42a.327.327 0 1 1 .65.087l-.325 2.42a.33.33 0 0 1-.324.285"/><path stroke="#0166FF" stroke-width=".759" d="M26.55 18.538c0-1.1.892-1.991 1.991-1.991h5.926a1.991 1.991 0 0 1 0 3.983h-5.926c-1.1 0-1.99-.892-1.99-1.992Zm0 5.924c0-1.1.892-1.991 1.991-1.991h5.926a1.991 1.991 0 0 1 0 3.983h-5.926c-1.1 0-1.99-.892-1.99-1.992Z"/></svg>
